!!!COM: Fanny Hensel-Mendelssohn
!!!OTL: Ariel
**kern	**text	**kern	**text	**kern	**text	**kern	**text
*part4	*part4	*part3	*part3	*part2	*part2	*part1	*part1
*staff4	*staff4	*staff3	*staff3	*staff2	*staff2	*staff1	*staff1
*I"Bass	*	*I"Tenor	*	*I"Alt	*	*I"Sopran	*
*clefF4	*	*clefGv2	*	*clefG2	*	*clefG2	*
*k[f#c#g#d#]	*	*k[f#c#g#d#]	*	*k[f#c#g#d#]	*	*k[f#c#g#d#]	*
*E:	*	*E:	*	*E:	*	*E:	*
*M4/4	*	*M4/4	*	*M4/4	*	*M4/4	*
*met(c)	*	*met(c)	*	*met(c)	*	*met(c)	*
=1	=1	=1	=1	=1	=1	=1	=1
1r	.	1r	.	4b	Gab	4b	Gab
.	.	.	.	4a	die	4b	die
.	.	.	.	4.g#	lie-	4.ee	lie-
.	.	.	.	8g#	-ben-	8b	-ben-
=2	=2	=2	=2	=2	=2	=2	=2
1r	.	1r	.	4a	-de	4cc#	-de
.	.	.	.	4e	Na-	8eeL	Na-
.	.	.	.	.	.	8ddnJ	.
.	.	.	.	4a	-tur,	4cc#	-tur,
.	.	.	.	4r	.	4r	.
=3	=3	=3	=3	=3	=3	=3	=3
1r	.	1r	.	4g#	gab	4b	gab
.	.	.	.	4f#	der	4a	der
.	.	.	.	4.a	Geist	4.ff#	Geist
.	.	.	.	8b	auch	8dd#	auch
=4	=4	=4	=4	=4	=4	=4	=4
1r	.	1r	.	2a	Flü-	2dd#	Flü-
.	.	.	.	4a	-gel	4ee	-gel
.	.	.	.	4r	.	4r	.
=5	=5	=5	=5	=5	=5	=5	=5
1r	.	1r	.	(4.f#	fol-	(4.a	fol-
.	.	.	.	8e)	.	8g#)	.
.	.	.	.	4d#	-get,	4f#	-get,
.	.	.	.	4r	.	4r	.
=6	=6	=6	=6	=6	=6	=6	=6
1r	.	1r	.	(4.a	fol-	(4.cc#	fol-
.	.	.	.	8g#)	.	8b)	.
.	.	.	.	4f#	-get,	4a	-get,
.	.	.	.	4r	.	4r	.
=7	=7	=7	=7	=7	=7	=7	=7
1r	.	1r	.	4.a	fol-	4.ff#	fol-
.	.	.	.	8f#	-get	8dd#	-get
.	.	.	.	4d#	mei-	8bL	mei-
.	.	.	.	.	.	8f#J	.
.	.	.	.	8eL	-ner	8g#L	-ner
.	.	.	.	8f#J	.	8aJ	.
=8	=8	=8	=8	=8	=8	=8	=8
1r	.	1r	.	4e	leich-	4g#	leich-
.	.	.	.	4g#	-ten	4b	-ten
.	.	.	.	4g#	Spur,	4ee	Spur,
.	.	.	.	4r	.	4r	.
=9	=9	=9	=9	=9	=9	=9	=9
1r	.	1r	.	4a	auf	4cc#	auf
.	.	.	.	4f#	zum	4a	zum
.	.	.	.	4.a	Ro-	4.ff#	Ro-
.	.	.	.	8b	-sen-	8dd#	-sen-
=10	=10	=10	=10	=10	=10	=10	=10
1r	.	1r	.	2a	-hü-	2dd#	-hü-
.	.	.	.	4g#	-gel.	4ee	-gel.
.	.	.	.	4r	.	4r	.
=11	=11	=11	=11	=11	=11	=11	=11
4B	Gab	4B	Gab	2r	.	2r	.
4A	die	4B	die	.	.	.	.
4.G#	lie-	4.e	lie-	4.b	Gab	4r	.
.	.	.	.	.	.	8ee	Gab
8G#	-ben-	8B	-ben-	8e	.	8ddn	die
=12	=12	=12	=12	=12	=12	=12	=12
4A	-de	4c#	-de	8a	lie-	8cc#	lie-
.	.	.	.	8g#	-ben-	8b	-ben-
4E	Na-	8eL	Na-	8f#	-de	8a	-de
.	.	8dnJ	.	8g#	Na-	8b	Na-
2A	-tur,	(4d	-tur,	(4g#	-tur	(4b	-tur
.	.	4c#)	.	4a)	.	4cc#)	.
=13	=13	=13	=13	=13	=13	=13	=13
4G#	gab	4B	gab	2r	.	4r	.
4F#	der	4A	der	.	.	8a	gab
.	.	.	.	.	.	8b	der
4.A	Geist	4.f#	Geist	4r	.	8cc#L	Geist
.	.	.	.	.	.	8ff#J	.
.	.	.	.	8f#	gab	8dd#L	auch
8B	auch	8d#	auch	8g#	der	8bJ	.
=14	=14	=14	=14	=14	=14	=14	=14
2A	Flü-	2d#	Flü-	8f#L	Geist	2b	Flü-
.	.	.	.	8aJ	.	.	.
.	.	.	.	8g#L	auch	.	.
.	.	.	.	8f#J	.	.	.
4G#	-gel	4B	-gel	4f#	Flü-	4ee	-gel,
4r	.	4r	.	4e	-gel,	4r	.
=15	=15	=15	=15	=15	=15	=15	=15
(4.F#	fol-	(4.A	fol-	2r	.	2r	.
8E)	.	8G#)	.	.	.	.	.
4D#	-get,	4F#	-get,	(4.f#	fol-	(4.a	fol-
4r	.	4r	.	.	.	.	.
.	.	.	.	8e)	.	8g#)	.
=16	=16	=16	=16	=16	=16	=16	=16
(4.A	fol-	(4.c#	fol-	4d#	-get,	4f#	-get,
.	.	.	.	4r	.	4r	.
8G#)	.	8B)	.	.	.	.	.
4G#	-get,	4A	-get,	(4.a	fol-	(4.cc#	fol-
4r	.	4r	.	.	.	.	.
.	.	.	.	8g#)	.	8b)	.
=17	=17	=17	=17	=17	=17	=17	=17
4.A	fol-	4.f#	fol-	4f#	-get	4a	-get
.	.	.	.	4r	.	4r	.
8F#	-get	8d#	-get	.	.	.	.
4D#	mei-	8BL	mei-	4r	.	4.b	mei-
.	.	8F#J	.	.	.	.	.
8EL	-ner	8G#L	-ner	8e	mei-	.	.
8F#J	.	8AJ	.	8d#	-ner	8b	-ner
=18	=18	=18	=18	=18	=18	=18	=18
4E	leich-	4G#	leich-	4e	leich-	8bL	leich-
.	.	.	.	.	.	8cc#J	.
4G#	-ten	4B	-ten	4e	-ten-	8dd#L	-ten-
.	.	.	.	.	.	8eeJ	.
2G#	Spur,	2e	Spur,	2e	-Spur,	2g#	-Spur,
=19	=19	=19	=19	=19	=19	=19	=19
4G#	auf	4B	auf	4dn	auf	8r	.
.	.	.	.	.	.	8e	auf
4A	zum	4c#	zum	4c#	zum	8f#	.
.	.	.	.	.	.	8g#	zum
4.F#	Ro-	4.d#	Ro-	4.a	Ro-	8aL	Ro-
.	.	.	.	.	.	8bJ	.
.	.	.	.	.	.	8cc#	-sen,-
8A	-sen-	8f#	-sen-	8b	-sen,-	8dd#	-zum
=20	=20	=20	=20	=20	=20	=20	=20
2A	-hü-	2f#	-hü-	4b	-Ro-	4dd#	Ro-
.	.	.	.	4d#	-sen-	8ff#L	-sen-
.	.	.	.	.	.	8eeJ	.
2G#	-gel,	2e	-gel,	4e	-hü-	4ee	-hü-
.	.	.	.	4b	-gel,	4ddn	-gel,
=21	=21	=21	=21	=21	=21	=21	=21
2r	.	2r	.	2.a	auf	2r	.
4A	auf	4e	auf	.	.	4ccn	auf
4r	.	4r	.	4r	.	4r	.
=22	=22	=22	=22	=22	=22	=22	=22
2r	.	2r	.	2.a	auf	2r	.
4A	auf	4e	auf	.	.	4ccn	auf
4r	.	4r	.	4r	.	4r	.
=23	=23	=23	=23	=23	=23	=23	=23
4B	auf	4e	auf	4g#	auf	4b	auf
4B	zum	4e	zum	4g#	zum	4cc#	zum
4B#X	Ro-	4f#	Ro-	4a	Ro-	4dd#	Ro-
4c#	-sen-	4e	-sen-	4a	-sen-	4ee	-sen-
=24	=24	=24	=24	=24	=24	=24	=24
2BB	-hü-	2d#	-hü-	2a	-hü-	2gg#	-hü-
2BB	-gel,	2d#	-gel,	2a	-gel,	4ff#	-gel,
.	.	.	.	.	.	4dd#	zum
=25	=25	=25	=25	=25	=25	=25	=25
2r	.	4r	.	4r	.	2.b	Ro-
.	.	4c#	zum	4e#X	zum	.	.
2B	auf,	4d#	Ro-	4f#	Ro-	.	.
.	.	4en	-sen-	4g#	-sen-	4b	-sen-
=26	=26	=26	=26	=26	=26	=26	=26
2.BB	auf.	2f#	-hü-	2a	-hü-	2ee	-hü-
.	.	4f#	-gel.	4a	-gel.	4dd#	-gel.
4r	.	4r	.	4r	.	4r	.
=27	=27	=27	=27	=27	=27	=27	=27
4E	Gab	4B	Gab	4g#	Gab	4b	Gab
4E	die	4A	die	4f#	die	4b	die
4.E	lie-	4.G#	lie-	4.e	lie-	4.ee	lie-
8dn	-ben-	8e	-ben-	8g#	-ben-	8b	-ben-
=28	=28	=28	=28	=28	=28	=28	=28
4c#	-de	4e	-de	4a	-de	4cc#	-de
4B	Na-	4e	Na-	4g#	Na-	8eeL	Na-
.	.	.	.	.	.	8ddnJ	.
4A	-tur.	4e	-tur.	4a	-tur.	4cc#	-tur.
4r	.	4r	.	4r	.	4r	.
=29	=29	=29	=29	=29	=29	=29	=29
4G#	gab	4c#	gab	4e#X	gab	4b	gab
4F#	der	4c#	der	4f#	der	4a	der
4.BB	Geist	4.d#	Geist	4.a	Geist	4.ff#	Geist
8B	auch	8f#	auch	8a	auch	8dd#	auch
=30	=30	=30	=30	=30	=30	=30	=30
2B	Flü-	2f#	Flü-	2a	Flü-	2dd#	Flü-
4E	-gel,	4e	-gel,	4g#	-gel,	4ee	-gel,
4r	.	4r	.	4r	.	4r	.
=31	=31	=31	=31	=31	=31	=31	=31
2BB	fol-	(4.F#	fol-	2d#	fol-	(4.a	fol-
.	.	8G#)	.	.	.	8g#)	.
4BB	-get,	4A	-get,	4d#	-get,	4f#	-get,
4r	.	4r	.	4r	.	4r	.
=32	=32	=32	=32	=32	=32	=32	=32
(4.A	fol-	2c#	fol-	2d#	fol-	(4.cc#	fol-
8G#)	.	.	.	.	.	8b)	.
4F#	-get,	4c#	-get,	4d#	-get,	4a	-get,
4r	.	4r	.	4r	.	4r	.
=33	=33	=33	=33	=33	=33	=33	=33
4.B	fol-	4.d#	fol-	4.a	fol-	4.ff#	fol-
8B	-get	8e	-get	8a	-get	8ee	-get
4B	mei-	4f#	mei-	4a	mei-	8eeL	mei-
.	.	.	.	.	.	8dd#J	.
4A	-ner	4d#	-ner	4f#	-ner	8cc#L	-ner
.	.	.	.	.	.	8bJ	.
=34	=34	=34	=34	=34	=34	=34	=34
4G#	leich-	4B	leich-	4e	leich-	4ee	leich-
4G#	-ten	4B	-ten	4e	-ten	4b	-ten
2E	Spur,	2dn	Spur,	2dn	Spur,	2g#	Spur,
=35	=35	=35	=35	=35	=35	=35	=35
2.AA	auf.	2.c#	auf.	4.cc#	auf	2.g#	auf.
.	.	.	.	8f#	zum	.	.
.	.	.	.	4f#	Ro-	.	.
4r	.	4r	.	4f#	-sen-	4r	.
=36	=36	=36	=36	=36	=36	=36	=36
4A	auf,	4.e	auf	2.f#	-hü-	1r	.
4r	.	.	.	.	.	.	.
.	.	8A	zum	.	.	.	.
4c#	auf,	4A	Ro-	.	.	.	.
4r	.	4A	-sen-	4f#	-gel,	.	.
=37	=37	=37	=37	=37	=37	=37	=37
2.AA	auf	2.B	-hü-	2.d#	auf	4.ff#	auf
.	.	.	.	.	.	8b	zum
.	.	.	.	.	.	4b	Ro-
4AA	zum	4B	-gel,	4d#	zum	4b	-sen-
=38	=38	=38	=38	=38	=38	=38	=38
2GG#	Ro-	4B	auf	2e	Hü-	2gg#	-hü-
.	.	4B#X	zum	.	.	.	.
[2AA	.	(4c#	Ro-	4e	-gel	4ee	-gel,
.	.	4e	.	4a	zum	4cc#	zum
=39	=39	=39	=39	=39	=39	=39	=39
4AA]	.	4d#)	.	4g#	Ro-	4b	Ro-
4FF# 4F#	-sen-	4c#	-sen-	4f#	-sen-	4a	-sen-
2BB	-hü-	(4.A	-hü-	2d#	-hü-	(4.f#	-hü-
.	.	8B)	.	.	.	8g#)	.
=40	=40	=40	=40	=40	=40	=40	=40
4EE 4E	-gel.	4G#	-gel.	4B	-gel.	4e	-gel.
4r	.	4r	.	4r	.	4r	.
4.G#	auf	4.B	auf	2r	.	2r	.
8B	zum	8dn	zum	.	.	.	.
=41	=41	=41	=41	=41	=41	=41	=41
(4B	Ro-	(4dn	Ro-	2r	.	1r	.
2A)	.	2c#)	.	.	.	.	.
.	.	.	.	4.e	auf	.	.
4c#	-sen-	4e	-sen-	.	.	.	.
.	.	.	.	8a	zum	.	.
=42	=42	=42	=42	=42	=42	=42	=42
(4c#	-hü-	2e	-hü-	(4a	Ro-	2r	.
4B)	.	.	.	4g#)	.	.	.
(4A	-gel	2d#	-gel	(4f#	-sen-	4.b	auf
4G#)	.	.	.	4e)	.	.	.
.	.	.	.	.	.	8ee	zum
=43	=43	=43	=43	=43	=43	=43	=43
2A	auf	2.c#	auf	2.e	-hü-	(4ee	Ro-
.	.	.	.	.	.	4cc#)	.
4r	.	.	.	.	.	4b	-sen,
4AA	zum	4c#	zum	8eL	-gel,	4a	zum
.	.	.	.	8eJ	zum	.	.
=44	=44	=44	=44	=44	=44	=44	=44
2AA	Ro-	2c#	Ro-	2e	Ro-	2.aa	Ro-
2AA	-sen-	2d#	-sen-	2f#	-sen-	.	.
.	.	.	.	.	.	4cc#	-sen-
=45	=45	=45	=45	=45	=45	=45	=45
1E;	-hü-	1d#;	-hü-	1a;	-hü-	1cc#;	-hü-
=46	=46	=46	=46	=46	=46	=46	=46
2.E	-gel.	2.e	-gel.	2.g#	-gel.	2.b	-gel.
4r	.	4r	.	4r	.	4r	.
==	==	==	==	==	==	==	==
*-	*-	*-	*-	*-	*-	*-	*-
!!!system-decoration: [(s1,s2,s3,s4)]